X:1
T:Sonata
T:Chopin's most copied tune.
T:Slow Theme from Chopin's posthumous Fantasie Impromptu.   Arr. solo guitar G. Dempsey 
C:Chopin
%%score ( 1 2 )
L:1/8
Q:1/2=60
M:4/4
K:G
V:1 treble-8 nm="Classical Guitar" snm="Guit."
V:2 treble-8 
V:1
|: [Gd]4 ^c2 d2 | e2 d2 g2 a2 |"^CV............................." c'3 b b4- | b4 ^a2 b2 | d'6 b2 | %5
 a6 g2 | e8 | [Be]8 | [Ae]4 ^d2 e2 | [^Gd=f]2 [Be]2 [da]2 b2 | d'4 c'4- | c'4 b2 [ca]2 || %12
 d4 c'2 b2!dacoda! | a2 e2 f4 | g8- |1 g8 :|2 g8 || g6 a2 | _b4 c'4 | _b8 | =f8 | %21
"^CIV...................................................................................................................................   CI.............................................." =f6 !4!g2 | %22
 _a4 _b4 | _a8 | _e8 | _e6 =f2 | g4 =a4 | [dg]6 d2- | d4 g4 | [ea]6 e2 | e4 a4 | b4 a4 | %32
 f4 e4!D.S.! :|"^Coda" d4 c'2 b2 | a2 e2 f4 | f4 !-(!e'2 !-)!d'2 | c'2 b2 a2 g2 | d4 c'2 b2 | %38
 a2 e2 f4 | g8 |] %40
V:2
|: [G,D]2 D2 ^C2 D2 | [Dc]2 F2 [Bd]2 [Fcd]2 | [Ge]2 D2 [Gd]2 B2 | !0![B,G]2 [DB]2 ^A2 B2 | %4
 D2 d2 g2 d2 | B,2 [FA]2 ^d2 d2 | [CGc]2 E2 G2 E2 | E,2 E2 ^G2 E2 | [A,E]2 E2 A2 c2 | %9
 E,2 E2 [EB]2 z2 | A,2 [ce]4 [cea]2 | A,2 [cea]4 A,2 || [G,DG]2 G2 D2 [GB]2 | %13
 [A,^c]2 A2 D2 [A=c]2 | [G,GB]2 B,2 D2 E2 |1 [GB]4 D2 E2 :|2 [G,B,GB]8 || _E2 _B2 E2 [G_e]2 | %18
 [_E_e]2 !0!G2 [Eg]2 _B2 | [=F_Bd]2 B2 F2 B2 | [_B,d]2 _B2 =F2 _B2 | _D2 _A2 D2 A2 | %22
 [_D=f]2 _A2 [Df]2 A2 | [_Ec]2 _A2 E2 A2 | [_A,c]2 _A2 [_Ec]2 A2 | _E2 _B2 E2 G2 | %26
 _E2 _B2 [^Fc]2 d2 | [G,D]2 G2 [DB]2 G2 | [G,D]2 G2 [DB]2 G2 | A,2 E2 A2 E2 | A,2 G2 [^ce]2 G2 | %31
 D2 [A=c]2 D2 [Ac]2 | D2 [Ac]2 [DFcd]4 :| [G,D]2 G2 D2 [GB]2 | [A,G^c]2 E2 D2 [A=c]2 | %35
 [B,A]2 [^DB]2 [Be^g]2 z2 | [G=ce]2 z2 [G^ce]2 z2 | [G,DG]2 G2 D2 [GB]2 | [A,G^c]2 E2 [DA=c]4 | %39
 !arpeggio![G,B,DGB]8 |] %40

